core/assets/icons/wallet.outline.svg

<svg xmlns="http://www.w3.org/2000/svg" width="24" height="24" fill="none"><g clip-path="url(#a)"><path fill="#191C22" d="M22 7h1v10h-1v3c0 .6-.4 1-1 1H3c-.6 0-1-.4-1-1V4c0-.6.4-1 1-1h18c.6 0 1 .4 1 1v3Zm-2 10h-6c-2.8 0-5-2.2-5-5s2.2-5 5-5h6V5H4v14h16v-2Zm1-2V9h-7c-1.7 0-3 1.3-3 3s1.3 3 3 3h7Zm-7-4h3v2h-3v-2Z"/></g><defs><clipPath id="a"><path fill="#fff" d="M0 0h24v24H0z"/></clipPath></defs></svg>

<svg width="24" height="24" viewBox="0 0 24 24" xmlns="http://www.w3.org/2000/svg"><g id="wallet=outline" clip-path="url(#clip0_410_14)"><g id="wallet"><path id="Vector" d="M22 7H23V17H22V20C22 20.6 21.6 21 21 21H3C2.4 21 2 20.6 2 20V4C2 3.4 2.4 3 3 3H21C21.6 3 22 3.4 22 4V7ZM20 17H14C11.2 17 9 14.8 9 12C9 9.2 11.2 7 14 7H20V5H4V19H20V17ZM21 15V9H14C12.3 9 11 10.3 11 12C11 13.7 12.3 15 14 15H21ZM14 11H17V13H14V11Z"/></g></g><defs><clipPath id="clip0_410_14"><rect width="24" height="24"/></clipPath></defs></svg>
